X: 22
T: Loch Vach
%R: reel
B: Urbani & Liston "A Selection of Scotch, English Irish, and Foreign Airs", Edinburgh 1800, p.9
F: http://www.vwml.org/browse/browse-collections-dance-tune-books/browse-urbani1800
Z: 2014 John Chambers <jc:trillian.mit.edu>
N: Added missing G2 at end of 1st strain.
M: C|
L: 1/8
K: G
|:\
dBGB dgdB | egdB A/A/AA2 |\
dBGB dgdB | g<eTd>B G/G/GG2 ::\
gaba gedg | egdb a/a/aTa2 |
gaba gedg | e<gTd>B G/G/GG2 |\
gaba gedg | egdb a/a/aTa2 |\
gabg c'afd | e<aTd>B G/G/GG2 :]

%%sep 1 1 500
%%sep 1 1 500
